icons/icn_anadirCapas.svg

<svg width="24" xmlns="http://www.w3.org/2000/svg" height="24" id="screenshot-0ef66420-1100-8022-8006-9da2be8300c4" viewBox="0 0 24 24" xmlns:xlink="http://www.w3.org/1999/xlink" fill="none" version="1.1"><g id="shape-0ef66420-1100-8022-8006-9da2be8300c4"><g class="frame-container-wrapper"><g class="frame-container-blur"><g class="frame-container-shadows"><g fill="none"><g class="fills" id="fills-0ef66420-1100-8022-8006-9da2be8300c4"><rect rx="0" ry="0" x="0" y="0" width="24" height="24.000000000000455" transform="matrix(1, 0, 0, 1, 0, 0)" class="frame-background"/></g><g class="frame-children"><g id="shape-0ef66420-1100-8022-8006-9da198ccba97" rx="0" ry="0"><g id="shape-0ef66420-1100-8022-8006-9da0ce7905c1" style="opacity: 1;"><g class="fills" id="fills-0ef66420-1100-8022-8006-9da0ce7905c1"><path d="M11.199755668640137,1.709228515625L4.039355278015137,5.717529296875C3.370410203933716,6.0921630859375,3.371386766433716,7.1431884765625,4.039355278015137,7.518798828125L11.170214653015137,11.527099609375C11.667773246765137,11.80712890625,12.273974418640137,11.8062744140625,12.772265434265137,11.527099609375L19.932666778564453,7.518798828125C20.601612091064453,7.1441650390625,20.600635528564453,6.0936279296875,19.932666778564453,5.717529296875L12.801806449890137,1.709228515625C12.304247856140137,1.4295654296875,11.698046684265137,1.4300537109375,11.199755668640137,1.709228515625ZM11.930712699890137,3.0157470703125C11.973925590515137,2.9913330078125,12.027636528015137,2.9913330078125,12.070849418640137,3.0157470703125L18.470996856689453,6.6181640625L12.041308403015137,10.220458984375C11.998095512390137,10.2449951171875,11.944384574890137,10.2449951171875,11.901171684265137,10.220458984375L5.493700981140137,6.6181640625Z" style="display: inline; stroke-linecap: round; fill: rgb(0, 0, 0); fill-opacity: 1;"/></g></g><g id="shape-0ef66420-1100-8022-8006-9da0ce799873" style="opacity: 1;"><g class="fills" id="fills-0ef66420-1100-8022-8006-9da0ce799873"><path d="M6.231738090515137,10.6256103515625C6.040820121765137,10.565185546875,5.833300590515137,10.5836181640625,5.656054496765137,10.67724609375L4.068896293640137,11.4967041015625C3.384326219558716,11.8505859375,3.367724657058716,12.9139404296875,4.039355278015137,13.2904052734375L10.240283012390137,16.767333984375C10.600878715515137,16.968017578125,11.056933403015137,16.8397216796875,11.258837699890137,16.4794921875C11.357714653015137,16.3055419921875,11.383349418640137,16.0992431640625,11.328906059265137,15.9063720703125C11.274462699890137,15.7135009765625,11.146288871765137,15.5506591796875,10.970995903015137,15.453369140625L5.552783012390137,12.41943359375L6.342577934265137,12.0059814453125C6.519824028015137,11.9151611328125,6.653613090515137,11.75732421875,6.715380668640137,11.5677490234375C6.776171684265137,11.3780517578125,6.758593559265137,11.171875,6.667284965515137,10.99462890625C6.576952934265137,10.81884765625,6.419970512390137,10.6865234375,6.231738090515137,10.6256103515625Z" style="display: inline; stroke-linecap: round; fill: rgb(0, 0, 0); fill-opacity: 1;"/></g></g><g id="shape-0ef66420-1100-8022-8006-9da0ce799874" style="opacity: 1;"><g class="fills" id="fills-0ef66420-1100-8022-8006-9da0ce799874"><path d="M17.241992950439453,12.322021484375C14.577929496765137,12.322021484375,12.399462699890137,14.4923095703125,12.399462699890137,17.1572265625C12.399462699890137,19.821533203125,14.577929496765137,21.999755859375,17.241992950439453,21.999755859375C19.906787872314453,21.999755859375,22.084522247314453,19.821533203125,22.084522247314453,17.1572265625C22.084522247314453,14.4923095703125,19.906787872314453,12.322021484375,17.241992950439453,12.322021484375ZM17.241992950439453,13.73193359375C19.141895294189453,13.73193359375,20.667041778564453,15.25732421875,20.667041778564453,17.1572265625C20.667041778564453,19.05712890625,19.141895294189453,20.5823974609375,17.241992950439453,20.5823974609375C15.342089653015137,20.5823974609375,13.816699028015137,19.05712890625,13.816699028015137,17.1572265625C13.816699028015137,15.25732421875,15.342089653015137,13.73193359375,17.241992950439453,13.73193359375Z" style="display: inline; stroke-linecap: square; stroke-linejoin: round; fill: rgb(0, 0, 0); fill-opacity: 1;"/></g></g><g id="shape-0ef66420-1100-8022-8006-9da0ce7a137a" style="opacity: 1;"><g class="fills" id="fills-0ef66420-1100-8022-8006-9da0ce7a137a"><path d="M17.241992950439453,14.853515625C17.053760528564453,14.8531494140625,16.872852325439453,14.9278564453125,16.740039825439453,15.0606689453125C16.606983184814453,15.193603515625,16.532276153564453,15.37451171875,16.533252716064453,15.562744140625L16.533252716064453,16.4549560546875L15.648241996765137,16.4549560546875C15.258837699890137,16.4541015625,14.942431449890137,16.767333984375,14.939745903015137,17.15625C14.938769340515137,17.344482421875,15.013476371765137,17.52490234375,15.146288871765137,17.658203125C15.279345512390137,17.7911376953125,15.460009574890137,17.8658447265625,15.648241996765137,17.8653564453125L16.533252716064453,17.8653564453125L16.533252716064453,18.760009765625C16.535938262939453,19.1484375,16.853565216064453,19.461669921875,17.241992950439453,19.4608154296875C17.631397247314453,19.461669921875,17.947803497314453,19.1484375,17.950489044189453,18.760009765625L17.950489044189453,17.8653564453125L18.740528106689453,17.8653564453125C19.128955841064453,17.8616943359375,19.441699981689453,17.545166015625,19.440723419189453,17.15625C19.438037872314453,16.7705078125,19.126026153564453,16.4586181640625,18.740528106689453,16.4549560546875L17.950489044189453,16.4549560546875L17.950489044189453,15.562744140625C17.951465606689453,15.37451171875,17.876758575439453,15.193603515625,17.743946075439453,15.0606689453125C17.611133575439453,14.9278564453125,17.430225372314453,14.8531494140625,17.241992950439453,14.853515625Z" style="display: inline; stroke-linecap: round; stroke-linejoin: round; fill: rgb(0, 0, 0); fill-opacity: 1;"/></g></g><g id="shape-0ef66420-1100-8022-8006-9da0ce7a4d2f" style="opacity: 1;"><g class="fills" id="fills-0ef66420-1100-8022-8006-9da0ce7a4d2f"><path d="M6.231738090515137,16.1505126953125C6.040820121765137,16.090087890625,5.833300590515137,16.1085205078125,5.656054496765137,16.2021484375L4.068896293640137,17.021484375C3.384326219558716,17.3753662109375,3.367724657058716,18.4388427734375,4.039355278015137,18.8153076171875L10.240283012390137,22.292236328125C10.600878715515137,22.493408203125,11.056933403015137,22.3646240234375,11.258837699890137,22.0042724609375C11.357714653015137,21.830322265625,11.383349418640137,21.6241455078125,11.328906059265137,21.4312744140625C11.274462699890137,21.2384033203125,11.146288871765137,21.0755615234375,10.970995903015137,20.978271484375L5.552783012390137,17.9443359375L6.342577934265137,17.5308837890625C6.519824028015137,17.43994140625,6.653613090515137,17.2822265625,6.715380668640137,17.092529296875C6.776171684265137,16.9029541015625,6.758593559265137,16.69677734375,6.667284965515137,16.51953125C6.576952934265137,16.34375,6.419970512390137,16.21142578125,6.231738090515137,16.1505126953125Z" style="display: inline; stroke-linecap: round; fill: rgb(0, 0, 0); fill-opacity: 1;"/></g></g></g></g></g></g></g></g></g></svg>

<svg fill="none" viewBox="0 0 24 24"><path fill="#000" d="M11.1998 1.7092 4.0394 5.7175c-.669.3747-.668 1.4257 0 1.8013l7.1308 4.0083a1.6347 1.6347 0 0 0 1.602 0l7.1605-4.0083c.669-.3746.668-1.4252 0-1.8013l-7.1309-4.0083a1.6357 1.6357 0 0 0-1.602 0Zm.731 1.3065a.1432.1432 0 0 1 .14 0l6.4002 3.6025-6.4297 3.6023a.1426.1426 0 0 1-.1401 0L5.4937 6.6182ZM6.2317 10.6256a.749.749 0 0 0-.5756.0516l-1.5872.8195c-.6846.3539-.7012 1.4172-.0295 1.7937l6.2009 3.477c.3606.2006.8166.0723 1.0185-.288a.75.75 0 0 0-.2878-1.0261l-5.4182-3.0339.7898-.4134a.7547.7547 0 0 0 .3728-.4383.7511.7511 0 0 0-.0481-.573.748.748 0 0 0-.4356-.369ZM17.242 12.322c-2.664 0-4.8425 2.1703-4.8425 4.8352 0 2.6643 2.1784 4.8426 4.8425 4.8426 2.6648 0 4.8425-2.1783 4.8425-4.8426 0-2.6649-2.1777-4.8352-4.8425-4.8352Zm0 1.41a3.4147 3.4147 0 0 1 3.425 3.4252 3.4146 3.4146 0 0 1-3.425 3.4252 3.4148 3.4148 0 0 1-3.4253-3.4252 3.4149 3.4149 0 0 1 3.4253-3.4253Z"/><path fill="#000" d="M17.242 14.8535a.7084.7084 0 0 0-.502.2072.705.705 0 0 0-.2067.502v.8923h-.885a.7063.7063 0 0 0-.7086.7013.7061.7061 0 0 0 .7085.709h.885v.8947c.0027.3884.3204.7017.7088.7008.3894.0009.7058-.3124.7085-.7008v-.8946h.79a.707.707 0 0 0 .7002-.7092.7067.7067 0 0 0-.7002-.7012h-.79v-.8923a.7058.7058 0 0 0-.2066-.502.7084.7084 0 0 0-.502-.2072ZM6.2317 16.1505a.749.749 0 0 0-.5756.0516l-1.5872.8194c-.6846.3539-.7012 1.4173-.0295 1.7938l6.2009 3.477a.7494.7494 0 0 0 1.0185-.288.75.75 0 0 0-.2878-1.026l-5.4182-3.034.7898-.4134a.755.755 0 0 0 .3728-.4384.7509.7509 0 0 0-.0481-.573.748.748 0 0 0-.4356-.369Z"/></svg>
